X: 5
T:Kid on the Mountain
% Nottingham Music Database
S:Bothy Boys
M:9/8
K:Em
P:A
B|:"Em"E2E FEF G2F|"Em"E2E "Am"cBA "Em"BGE|"Em"E2E "D"FEF "G"G2G/2A/2|\
"C"BAG FAG "D"FED:|
P:B
|:"G"BGB "D7"AFA "G"G2(3D/2E/2F/2|"G"GAB dge "D7"dBA|"G"Bcd "D7"cBA "G"G2A|\
"C"BAG FAG "D"FED:|
P:C
|:"Em"g2g eBe e2e/2f/2|"Em"gfg efg "D"afd|"Em"g2g eBe e2(3f/2g/2a/2|\
"C"bag fag "D"fed:|
P:D
|:"Em"eBB e2f g2f|"Em"eBB efg "D"afd|"Em"eBB e2f g2g/2a/2|"C"bag fag "D"fed:|
P:E
|:"G"edB "D7"dBA "G"G2(3D/2E/2F/2|"G"GAB dge "D7"dBd|"G"edB "D7"dBA "G"G2A|\
"C"BAG FAG "D"FED:|
P:F
|:"Em"B,EE eBG E3|"Em"B,EE EFG "D"AFD|"Em"B,EE eBG E2(3F/2G/2A/2|\
"C"BAG FAG "D"FED:|<end>
<start>
